Adwaita++-Dark/actions/16/add-files-to-archive.svg

<svg height="16" viewBox="0 0 16 16" width="16" xmlns="http://www.w3.org/2000/svg">
  <path d="m4.7029987 1.0058594c-.2342565.0374554-.703125.1991135-.703125.7988281v10.3945315c0 .799676.8339844.800781.8339844.800781h8.3242189c.832521 0 .833982-.800781.833985-.800781.01583-.03685.0042-5.9574944 0-7.9941409l-3.330079-3.1992187h-5.8281249s-.052774-.012462-.1308594 0zm-2 2c-.2342565.0374554-.703125.1991135-.703125.7988281v10.3945315c0 .799676.8339844.800781.8339844.800781h8.3242189c.832521 0 .833981-.800781.833985-.800781.000394-.000919-.000361-.191144 0-.199219h-8.1582039s-.8339844-.0011-.8339844-.800781v-10.1933596h-.1660156s-.052774-.012462-.1308594 0zm5.296875.9941406h2v2h2.0000003v2h-2.0000003v2h-2v-2h-2v-2h2z" fill="#e6ddff"/>
</svg>

<svg xmlns="http://www.w3.org/2000/svg" width="16" height="16" version="1.1" viewBox="0 0 16 16">
 <path style="fill:#E6DDFF" d="M 4.7029987,1.0058594 C 4.4687422,1.0433148 3.9998737,1.2049729 3.9998737,1.8046875 V 12.199219 C 3.9998737,12.998895 4.8338581,13 4.8338581,13 h 8.3242189 c 0.832521,0 0.833982,-0.800781 0.833985,-0.800781 0.01583,-0.03685 0.0042,-5.9574944 0,-7.9941409 L 10.661983,1.0058594 H 4.8338581 c 0,0 -0.052774,-0.012462 -0.1308594,0 z m -2,2 C 2.4687422,3.0433148 1.9998737,3.2049729 1.9998737,3.8046875 V 14.199219 C 1.9998737,14.998895 2.8338581,15 2.8338581,15 h 8.3242189 c 0.832521,0 0.833981,-0.800781 0.833985,-0.800781 3.94e-4,-9.19e-4 -3.61e-4,-0.191144 0,-0.199219 H 3.8338581 c 0,0 -0.8339844,-0.0011 -0.8339844,-0.800781 V 3.0058594 H 2.8338581 c 0,0 -0.052774,-0.012462 -0.1308594,0 z M 7.9998737,4 h 2 V 6 H 11.999874 V 8 H 9.9998737 v 2 h -2 V 8 h -2 V 6 h 2 z"/>
</svg>
